src/distro-icons/opensuse.svg

<svg width="512" height="512" fill="none" xmlns="http://www.w3.org/2000/svg">
<circle cx="256" cy="256" r="256" fill="#fff"/>
<path fill-rule="evenodd" clip-rule="evenodd" d="M281.904 192.046c9.201-8.613 21.235-13.091 33.928-12.636l.015.004c26.149.919 46.617 22.855 45.735 48.957-.402 12.585-5.716 24.26-14.951 32.914-9.254 8.612-21.349 13.091-34.035 12.708-26.103-.957-46.578-22.924-45.697-49.033.384-12.635 5.808-24.302 15.005-32.914Zm20.671 25.105c0 7.694 9.385 13.972 21.004 13.972 11.613 0 21.024-6.278 21.032-13.972 0-7.766-9.412-14.009-21.032-14.009-11.619 0-21.004 6.243-21.004 14.009Z" fill="#73BA25"/>
<path fill-rule="evenodd" clip-rule="evenodd" d="M430.46 289.715c-.829.566-1.768 1.206-2.798 1.886l.043-.004h.003l-.03.021c-15.62 10.913-52.061 36.374-98.839 32.216-42.055-3.713-96.952-27.789-163.159-71.349 2.952 6.894 16.757 39.464 19.015 44.976l.924 1.068c9.584 4.976 101.553 51.754 147.211 50.832 36.764-.766 76.113-18.676 91.854-28.134l4.961-.919c1.422 1.114 1.192 3.216.801 5.202-.966 4.513-3.175 12.743-4.673 16.651l-1.262 3.181c-1.805 4.819-3.531 9.297-6.866 12.057-9.281 8.417-24.079 15.116-47.268 25.183-35.845 15.655-94.001 25.607-147.978 25.266-19.353-.428-38.03-2.572-54.438-4.486l-.12-.013c-43.921-4.951-77.2-8.702-89.886 20.952C36.45 380.409 11 321.177 11 256c0-55.306 18.325-106.331 49.235-147.336 39.845 9.785 68.796 19.174 76.252 21.675.092-3.671.705-36.513.705-36.513l.476-1.148 1.265-.348c7.437 1.072 166.149 24.574 233.084 63.501 6.826 3.988 10.799 8.182 14.847 12.455.852.899 1.707 1.802 2.593 2.707 18.478 19.1 42.932 98.525 45.543 114.908l-1.031 1.604c-.636.25-1.854 1.081-3.509 2.21ZM267.662 177.611c-13.256 12.325-20.851 29.129-21.522 47.234h.039c-1.265 37.359 28.104 68.826 65.478 70.201 18.233.612 35.499-5.78 48.764-18.22 13.226-12.287 20.816-29.091 21.522-47.196 1.265-37.324-28.135-68.865-65.555-70.2-18.153-.575-35.461 5.814-48.726 18.181Z" fill="#73BA25"/>
</svg>

<svg width="512" height="512" viewBox="0 0 512 512" fill="none" xmlns="http://www.w3.org/2000/svg">
<circle cx="256" cy="256" r="256" fill="white"/>
<path fill-rule="evenodd" clip-rule="evenodd" d="M281.904 192.046C291.105 183.433 303.139 178.955 315.832 179.41L315.847 179.414C341.996 180.333 362.464 202.269 361.582 228.371C361.18 240.956 355.866 252.631 346.631 261.285C337.377 269.897 325.282 274.376 312.596 273.993C286.493 273.036 266.018 251.069 266.899 224.96C267.283 212.325 272.707 200.658 281.904 192.046ZM302.575 217.151C302.575 224.845 311.96 231.123 323.579 231.123C335.192 231.123 344.603 224.845 344.611 217.151C344.611 209.385 335.199 203.142 323.579 203.142C311.96 203.142 302.575 209.385 302.575 217.151Z" fill="#73BA25"/>
<path fill-rule="evenodd" clip-rule="evenodd" d="M430.46 289.715C429.631 290.281 428.692 290.921 427.662 291.601L427.705 291.597H427.708L427.678 291.618C412.058 302.531 375.617 327.992 328.839 323.834C286.784 320.121 231.887 296.045 165.68 252.485C168.632 259.379 182.437 291.949 184.695 297.461L185.619 298.529C195.203 303.505 287.172 350.283 332.83 349.361C369.594 348.595 408.943 330.685 424.684 321.227L429.645 320.308C431.067 321.422 430.837 323.524 430.446 325.51C429.48 330.023 427.271 338.253 425.773 342.161L424.511 345.342C422.706 350.161 420.98 354.639 417.645 357.399C408.364 365.816 393.566 372.515 370.377 382.582C334.532 398.237 276.376 408.189 222.399 407.848C203.046 407.42 184.369 405.276 167.961 403.362L167.841 403.349C123.92 398.398 90.6415 394.647 77.955 424.301C36.4503 380.409 11 321.177 11 256C11 200.694 29.3253 149.669 60.235 108.664C100.08 118.449 129.031 127.838 136.487 130.339C136.579 126.668 137.192 93.8263 137.192 93.8263L137.668 92.678L138.933 92.3297C146.37 93.4015 305.082 116.904 372.017 155.831C378.843 159.819 382.816 164.013 386.864 168.286C387.716 169.185 388.571 170.088 389.457 170.993C407.935 190.093 432.389 269.518 435 285.901L433.969 287.505C433.333 287.755 432.115 288.586 430.46 289.715ZM267.662 177.611C254.406 189.936 246.811 206.74 246.14 224.845H246.179C244.914 262.204 274.283 293.671 311.657 295.046C329.89 295.658 347.156 289.266 360.421 276.826C373.647 264.539 381.237 247.735 381.943 229.63C383.208 192.306 353.808 160.765 316.388 159.43C298.235 158.855 280.927 165.244 267.662 177.611Z" fill="#73BA25"/>
</svg>
